X: 13
T: the Cumberland Reel or Unas Loch
%R: reel
B: Name "Kauntze's Collection of the most favorite Dances, Reels, Waltzes, &c."
F: http://imslp.org/wiki/Kauntze%27s_Collection_of_Dances,_Reels,_Waltzes_etc._%28Various%29
Z: 2014 John Chambers <jc:trillian.mit.edu>
M: C|
L: 1/8
K: Bb
% - - - - - - - - - - - - - - - - - - - - - - - - - - - - -
V: 1
F |\
B2bg fdcB | AFcA dFcF |\
B2bg fdcB | FBAc dBB :|
|: d |\
BGTF>E DEFD | ECCB BGGA |\
B>AF>E DEFD | B,BAB dBB :|
% - - - - - - - - - - - - - - - - - - - - - - - - - - - - -
V: 2 clef=bass middle=d
z |\
b2b2 B2B2 | F2f2 F2f2 | B2B2 d2e2 |
f2f2 B2B :||: z | B2B2 B2B2 | c2c2 c2c2 |
B2B2 B2B2 | f2f2 B2B :|
% - - - - - - - - - - Dance description - - - - - - - - - -
%%begintext align
%%   Cast off two Cu: up again, Lead down the middle and foot it and Allemande, turn
%% six round and Lead outsides.
%%endtext
